X:1
T:Sarabande
T:Zarabanda
T:Georg Friedrich Händel
T:De la Suite Nº11 en Re menor (HWV 437)
C:G. F. Haendel
%%score { 1 | ( 2 3 ) }
L:1/8
Q:1/4=110
M:3/2
K:F
V:1 treble nm="Piano" snm="Pno."
V:2 bass 
V:3 bass 
V:1
"Dm""^Lento"!p!!<(! !1!!3!!5![A,DF]4 [A,DF]4 z2"^\n11\n""^9""^   " (!3!!5![EG]2!<)! | %1
"A"!>(! !1!!2!!3![A,^CE]4"^(  9 )" [A,CE]4)!>)! z4 | %2
"F"!>(! !1!!3!!5![CFA]4 [CFA]4!>)! z2"^   ""^\n11\n""^9" (!3!!5![G_B]2 | %3
"C"!>(! !1!!2!!3![CEG]4 [CEG]4)!>)! z2"D/A" (!2!!4![^FA]2 | %4
"Gm"!>(! !1!!3!!5![DG_B]4 [DGB]4)!>)! z2"^   ""^\n11\n""^9" (!3!!5![Ac]2 | %5
"Dm"!>(! !1!!2!!3![DFA]4 [DFA]4)!>)! z2"Dm/C" (!2!A2 | %6
"Bbmaj7"!<(! !2!!5![Ad]4"Bb6" !1!!5![Gd]4) z2"Gm6/Bb" (!5!e2!<)! | %7
"A"!mf! !1!!2!!4![EA^c]4!>(! [EAc]4)"C7" z4!>)! | %8
"Dm"!p!!<(! !1!!3!!5![A,DF]4 [A,DF]4 z2"^\n11\n""^9""^   " (!3!!5![EG]2!<)! | %9
"A"!>(! !1!!2!!3![A,^CE]4 [A,CE]4)!>)! z4 | %10
"F"!>(! !1!!3!!5![CFA]4 [CFA]4!>)! z2"^9""^\n11\n""^   " (!3!!5![G_B]2 | %11
"C"!>(! !1!!2!!3![CEG]4 [CEG]4)!>)! z2"D/A" (!2!!4![^FA]2 | %12
"Gm"!<(! !1!!3!!5![DG_B]4"C7/E" [CGB]4)!<)!"C" z2 (!5!c2 | %13
"F" !1!!2!!4![CFA]6)"Dm"!<(! (!1!A2"Bb" !3!d2"^(  9 )" !2!^c2 | %14
"Gm" !1!!3![_Bd]2"C6" !4!e2!<)!"Dm/A"!mf! !1!!3!!5![Adf]4)"A7" (!1!!3!!5![G^ce]2"Csus4" !4!d2 | %15
"Dm"!>(! !1!!2!!5![FAd]4 [FAd]4)!>)! z4 :| %16
V:2
 D,4 D,,4 z4 | !3!A,,6!<(! (_B,,2!<)!!>(! A,,2 G,,2!>)! | F,,4 F,4) z4 | %3
 !2!C,6!<(! (C,2!<)!!>(! _B,,2 A,,2!>)! | G,,4 G,4) (G,,4 | !2!D,4 D,4) z2 (C,2 | %6
 !4-5!_B,,4 !1!_B,4) z4 | !1!A,4 !5!A,,4 z4 | !1!D,4 D,,4 z4 | %9
 !3!A,,6"^(  9 )"!<(! (_B,,2!<)!!>(! A,,2 G,,2!>)! | F,,4 F,4) z4 | %11
 !2!C,6"C7"!<(! (C,2!<)!!>(! _B,,2 A,,2!>)! | G,,2) (G,2 !3!E,2 G,2 C,2 E,2 | %13
 !2!F,6"^2º vez, molto rit." !5!D,2 !1!_B,4 | !2!G,4 !1!A,4) (A,,4 | !1!D,4 D,,4) z4 :| %16
V:3
 x12 | x12 | x12 | x12 | x12 | x12 | x12 | x4 z2 (!tenuto!!1!G,2 F,2 E,2) | x12 | x12 | x12 | x12 | %12
 x12 | x12 | x12 | x12 :| %16

